public/img/next/attachments.svg

<svg width="518" height="115" viewBox="0 0 518 115" fill="none" xmlns="http://www.w3.org/2000/svg">
<path fill-rule="evenodd" clip-rule="evenodd" d="M-8 12.3656C-8 5.53627 -2.12374 0 5.125 0H62.875C70.1237 0 76 5.53626 76 12.3656V102.634C76 109.464 70.1237 115 62.875 115H5.125C-2.12374 115 -8 109.464 -8 102.634V12.3656ZM14.9688 24.7312C14.9688 23.0238 16.4378 21.6398 18.25 21.6398H43.1875C44.9997 21.6398 46.4688 23.0238 46.4688 24.7312V27.2043C46.4688 28.9116 44.9997 30.2957 43.1875 30.2957H18.25C16.4378 30.2957 14.9688 28.9116 14.9688 27.2043V24.7312ZM18.25 36.4785C16.4378 36.4785 14.9688 37.8626 14.9688 39.5699V42.043C14.9688 43.7503 16.4378 45.1344 18.25 45.1344H30.0625C31.8747 45.1344 33.3438 43.7503 33.3438 42.043V39.5699C33.3438 37.8626 31.8747 36.4785 30.0625 36.4785H18.25ZM34.6562 84.7043C34.6562 82.997 36.1253 81.6129 37.9375 81.6129H49.75C51.5622 81.6129 53.0312 82.997 53.0312 84.7043V87.1774C53.0312 88.8848 51.5622 90.2688 49.75 90.2688H37.9375C36.1253 90.2688 34.6562 88.8848 34.6562 87.1774V84.7043ZM18.25 69.8656C16.4378 69.8656 14.9688 71.2497 14.9688 72.957V75.4301C14.9688 77.1374 16.4378 78.5215 18.25 78.5215H49.75C51.5622 78.5215 53.0312 77.1374 53.0312 75.4301V72.957C53.0312 71.2497 51.5622 69.8656 49.75 69.8656H18.25Z" fill="url(#paint0_radial_501_569)" fill-opacity="0.5"/>
<path fill-rule="evenodd" clip-rule="evenodd" d="M96 12.3656C96 5.53627 101.876 0 109.125 0H166.875C174.124 0 180 5.53626 180 12.3656V102.634C180 109.464 174.124 115 166.875 115H109.125C101.876 115 96 109.464 96 102.634V12.3656ZM118.969 24.7312C118.969 23.0238 120.438 21.6398 122.25 21.6398H147.188C149 21.6398 150.469 23.0238 150.469 24.7312V27.2043C150.469 28.9116 149 30.2957 147.188 30.2957H122.25C120.438 30.2957 118.969 28.9116 118.969 27.2043V24.7312ZM122.25 36.4785C120.438 36.4785 118.969 37.8626 118.969 39.5699V42.043C118.969 43.7503 120.438 45.1344 122.25 45.1344H134.062C135.875 45.1344 137.344 43.7503 137.344 42.043V39.5699C137.344 37.8626 135.875 36.4785 134.062 36.4785H122.25ZM138.656 84.7043C138.656 82.997 140.125 81.6129 141.938 81.6129H153.75C155.562 81.6129 157.031 82.997 157.031 84.7043V87.1774C157.031 88.8848 155.562 90.2688 153.75 90.2688H141.938C140.125 90.2688 138.656 88.8848 138.656 87.1774V84.7043ZM122.25 69.8656C120.438 69.8656 118.969 71.2497 118.969 72.957V75.4301C118.969 77.1374 120.438 78.5215 122.25 78.5215H153.75C155.562 78.5215 157.031 77.1374 157.031 75.4301V72.957C157.031 71.2497 155.562 69.8656 153.75 69.8656H122.25Z" fill="url(#paint1_radial_501_569)" fill-opacity="0.5"/>
<path fill-rule="evenodd" clip-rule="evenodd" d="M200 12.3656C200 5.53627 205.946 0 213.281 0H271.719C279.054 0 285 5.53626 285 12.3656V102.634C285 109.464 279.054 115 271.719 115H213.281C205.946 115 200 109.464 200 102.634V12.3656ZM223.242 24.7312C223.242 23.0238 224.729 21.6398 226.562 21.6398H251.797C253.631 21.6398 255.117 23.0238 255.117 24.7312V27.2043C255.117 28.9116 253.631 30.2957 251.797 30.2957H226.562C224.729 30.2957 223.242 28.9116 223.242 27.2043V24.7312ZM226.562 36.4785C224.729 36.4785 223.242 37.8626 223.242 39.5699V42.043C223.242 43.7503 224.729 45.1344 226.562 45.1344H238.516C240.349 45.1344 241.836 43.7503 241.836 42.043V39.5699C241.836 37.8626 240.349 36.4785 238.516 36.4785H226.562ZM243.164 84.7043C243.164 82.997 244.651 81.6129 246.484 81.6129H258.438C260.271 81.6129 261.758 82.997 261.758 84.7043V87.1774C261.758 88.8848 260.271 90.2688 258.438 90.2688H246.484C244.651 90.2688 243.164 88.8848 243.164 87.1774V84.7043ZM226.562 69.8656C224.729 69.8656 223.242 71.2497 223.242 72.957V75.4301C223.242 77.1374 224.729 78.5215 226.562 78.5215H258.438C260.271 78.5215 261.758 77.1374 261.758 75.4301V72.957C261.758 71.2497 260.271 69.8656 258.438 69.8656H226.562Z" fill="url(#paint2_radial_501_569)" fill-opacity="0.5"/>
<path fill-rule="evenodd" clip-rule="evenodd" d="M305 12.3656C305 5.53627 310.876 0 318.125 0H375.875C383.124 0 389 5.53626 389 12.3656V102.634C389 109.464 383.124 115 375.875 115H318.125C310.876 115 305 109.464 305 102.634V12.3656ZM327.969 24.7312C327.969 23.0238 329.438 21.6398 331.25 21.6398H356.188C358 21.6398 359.469 23.0238 359.469 24.7312V27.2043C359.469 28.9116 358 30.2957 356.188 30.2957H331.25C329.438 30.2957 327.969 28.9116 327.969 27.2043V24.7312ZM331.25 36.4785C329.438 36.4785 327.969 37.8626 327.969 39.5699V42.043C327.969 43.7503 329.438 45.1344 331.25 45.1344H343.062C344.875 45.1344 346.344 43.7503 346.344 42.043V39.5699C346.344 37.8626 344.875 36.4785 343.062 36.4785H331.25ZM347.656 84.7043C347.656 82.997 349.125 81.6129 350.938 81.6129H362.75C364.562 81.6129 366.031 82.997 366.031 84.7043V87.1774C366.031 88.8848 364.562 90.2688 362.75 90.2688H350.938C349.125 90.2688 347.656 88.8848 347.656 87.1774V84.7043ZM331.25 69.8656C329.438 69.8656 327.969 71.2497 327.969 72.957V75.4301C327.969 77.1374 329.438 78.5215 331.25 78.5215H362.75C364.562 78.5215 366.031 77.1374 366.031 75.4301V72.957C366.031 71.2497 364.562 69.8656 362.75 69.8656H331.25Z" fill="url(#paint3_radial_501_569)" fill-opacity="0.5"/>
<path fill-rule="evenodd" clip-rule="evenodd" d="M409 12.3656C409 5.53627 414.876 0 422.125 0H479.875C487.124 0 493 5.53626 493 12.3656V102.634C493 109.464 487.124 115 479.875 115H422.125C414.876 115 409 109.464 409 102.634V12.3656ZM431.969 24.7312C431.969 23.0238 433.438 21.6398 435.25 21.6398H460.188C462 21.6398 463.469 23.0238 463.469 24.7312V27.2043C463.469 28.9116 462 30.2957 460.188 30.2957H435.25C433.438 30.2957 431.969 28.9116 431.969 27.2043V24.7312ZM435.25 36.4785C433.438 36.4785 431.969 37.8626 431.969 39.5699V42.043C431.969 43.7503 433.438 45.1344 435.25 45.1344H447.062C448.875 45.1344 450.344 43.7503 450.344 42.043V39.5699C450.344 37.8626 448.875 36.4785 447.062 36.4785H435.25ZM451.656 84.7043C451.656 82.997 453.125 81.6129 454.938 81.6129H466.75C468.562 81.6129 470.031 82.997 470.031 84.7043V87.1774C470.031 88.8848 468.562 90.2688 466.75 90.2688H454.938C453.125 90.2688 451.656 88.8848 451.656 87.1774V84.7043ZM435.25 69.8656C433.438 69.8656 431.969 71.2497 431.969 72.957V75.4301C431.969 77.1374 433.438 78.5215 435.25 78.5215H466.75C468.562 78.5215 470.031 77.1374 470.031 75.4301V72.957C470.031 71.2497 468.562 69.8656 466.75 69.8656H435.25Z" fill="url(#paint4_radial_501_569)" fill-opacity="0.5"/>
<defs>
<radialGradient id="paint0_radial_501_569" cx="0" cy="0" r="1" gradientUnits="userSpaceOnUse" gradientTransform="translate(-23.4918 -9.98503) rotate(46.0174) scale(178.962 698.436)">
<stop stop-color="#CA72B7"/>
<stop offset="0.430152" stop-color="#914680"/>
<stop offset="1" stop-color="#3F2660"/>
</radialGradient>
<radialGradient id="paint1_radial_501_569" cx="0" cy="0" r="1" gradientUnits="userSpaceOnUse" gradientTransform="translate(80.5082 -9.98503) rotate(46.0174) scale(178.962 698.436)">
<stop stop-color="#CA72B7"/>
<stop offset="0.430152" stop-color="#914680"/>
<stop offset="1" stop-color="#3F2660"/>
</radialGradient>
<radialGradient id="paint2_radial_501_569" cx="0" cy="0" r="1" gradientUnits="userSpaceOnUse" gradientTransform="translate(184.324 -9.98503) rotate(45.6785) scale(179.993 702.704)">
<stop stop-color="#CA72B7"/>
<stop offset="0.430152" stop-color="#914680"/>
<stop offset="1" stop-color="#3F2660"/>
</radialGradient>
<radialGradient id="paint3_radial_501_569" cx="0" cy="0" r="1" gradientUnits="userSpaceOnUse" gradientTransform="translate(289.508 -9.98503) rotate(46.0174) scale(178.962 698.436)">
<stop stop-color="#CA72B7"/>
<stop offset="0.430152" stop-color="#914680"/>
<stop offset="1" stop-color="#3F2660"/>
</radialGradient>
<radialGradient id="paint4_radial_501_569" cx="0" cy="0" r="1" gradientUnits="userSpaceOnUse" gradientTransform="translate(393.508 -9.98503) rotate(46.0174) scale(178.962 698.436)">
<stop stop-color="#CA72B7"/>
<stop offset="0.430152" stop-color="#914680"/>
<stop offset="1" stop-color="#3F2660"/>
</radialGradient>
</defs>
</svg>

<svg width="518" height="115" fill="none" xmlns="http://www.w3.org/2000/svg"><path fill-rule="evenodd" clip-rule="evenodd" d="M-8 12.366C-8 5.536-2.124 0 5.125 0h57.75C70.124 0 76 5.536 76 12.366v90.268C76 109.464 70.124 115 62.875 115H5.125C-2.124 115-8 109.464-8 102.634V12.366zM14.969 24.73c0-1.707 1.469-3.091 3.281-3.091h24.938c1.812 0 3.28 1.384 3.28 3.091v2.473c0 1.708-1.468 3.092-3.28 3.092H18.25c-1.812 0-3.281-1.384-3.281-3.092v-2.473zm3.281 11.747c-1.812 0-3.281 1.385-3.281 3.092v2.473c0 1.707 1.469 3.091 3.281 3.091h11.813c1.812 0 3.28-1.384 3.28-3.091V39.57c0-1.707-1.468-3.092-3.28-3.092H18.25zm16.406 48.226c0-1.707 1.47-3.091 3.282-3.091H49.75c1.812 0 3.281 1.384 3.281 3.091v2.473c0 1.708-1.469 3.092-3.281 3.092H37.937c-1.812 0-3.28-1.384-3.28-3.092v-2.473zM18.25 69.866c-1.812 0-3.281 1.384-3.281 3.091v2.473c0 1.707 1.469 3.091 3.281 3.091h31.5c1.812 0 3.281-1.384 3.281-3.09v-2.474c0-1.707-1.469-3.091-3.281-3.091h-31.5z" fill="url(#a)" fill-opacity=".5"/><path fill-rule="evenodd" clip-rule="evenodd" d="M96 12.366C96 5.536 101.876 0 109.125 0h57.75C174.124 0 180 5.536 180 12.366v90.268c0 6.83-5.876 12.366-13.125 12.366h-57.75C101.876 115 96 109.464 96 102.634V12.366zm22.969 12.365c0-1.707 1.469-3.091 3.281-3.091h24.938c1.812 0 3.281 1.384 3.281 3.091v2.473c0 1.708-1.469 3.092-3.281 3.092H122.25c-1.812 0-3.281-1.384-3.281-3.092v-2.473zm3.281 11.747c-1.812 0-3.281 1.385-3.281 3.092v2.473c0 1.707 1.469 3.091 3.281 3.091h11.812c1.813 0 3.282-1.384 3.282-3.091V39.57c0-1.707-1.469-3.092-3.282-3.092H122.25zm16.406 48.226c0-1.707 1.469-3.091 3.282-3.091h11.812c1.812 0 3.281 1.384 3.281 3.091v2.473c0 1.708-1.469 3.092-3.281 3.092h-11.812c-1.813 0-3.282-1.384-3.282-3.092v-2.473zM122.25 69.866c-1.812 0-3.281 1.384-3.281 3.091v2.473c0 1.707 1.469 3.091 3.281 3.091h31.5c1.812 0 3.281-1.384 3.281-3.09v-2.474c0-1.707-1.469-3.091-3.281-3.091h-31.5z" fill="url(#b)" fill-opacity=".5"/><path fill-rule="evenodd" clip-rule="evenodd" d="M200 12.366C200 5.536 205.946 0 213.281 0h58.438C279.054 0 285 5.536 285 12.366v90.268c0 6.83-5.946 12.366-13.281 12.366h-58.438c-7.335 0-13.281-5.536-13.281-12.366V12.366zm23.242 12.365c0-1.707 1.487-3.091 3.32-3.091h25.235c1.834 0 3.32 1.384 3.32 3.091v2.473c0 1.708-1.486 3.092-3.32 3.092h-25.235c-1.833 0-3.32-1.384-3.32-3.092v-2.473zm3.32 11.747c-1.833 0-3.32 1.385-3.32 3.092v2.473c0 1.707 1.487 3.091 3.32 3.091h11.954c1.833 0 3.32-1.384 3.32-3.091V39.57c0-1.707-1.487-3.092-3.32-3.092h-11.954zm16.602 48.226c0-1.707 1.487-3.091 3.32-3.091h11.954c1.833 0 3.32 1.384 3.32 3.091v2.473c0 1.708-1.487 3.092-3.32 3.092h-11.954c-1.833 0-3.32-1.384-3.32-3.092v-2.473zm-16.602-14.838c-1.833 0-3.32 1.384-3.32 3.091v2.473c0 1.707 1.487 3.091 3.32 3.091h31.876c1.833 0 3.32-1.384 3.32-3.09v-2.474c0-1.707-1.487-3.091-3.32-3.091h-31.876z" fill="url(#c)" fill-opacity=".5"/><path fill-rule="evenodd" clip-rule="evenodd" d="M305 12.366C305 5.536 310.876 0 318.125 0h57.75C383.124 0 389 5.536 389 12.366v90.268c0 6.83-5.876 12.366-13.125 12.366h-57.75c-7.249 0-13.125-5.536-13.125-12.366V12.366zm22.969 12.365c0-1.707 1.469-3.091 3.281-3.091h24.938c1.812 0 3.281 1.384 3.281 3.091v2.473c0 1.708-1.469 3.092-3.281 3.092H331.25c-1.812 0-3.281-1.384-3.281-3.092v-2.473zm3.281 11.747c-1.812 0-3.281 1.385-3.281 3.092v2.473c0 1.707 1.469 3.091 3.281 3.091h11.812c1.813 0 3.282-1.384 3.282-3.091V39.57c0-1.707-1.469-3.092-3.282-3.092H331.25zm16.406 48.226c0-1.707 1.469-3.091 3.282-3.091h11.812c1.812 0 3.281 1.384 3.281 3.091v2.473c0 1.708-1.469 3.092-3.281 3.092h-11.812c-1.813 0-3.282-1.384-3.282-3.092v-2.473zM331.25 69.866c-1.812 0-3.281 1.384-3.281 3.091v2.473c0 1.707 1.469 3.091 3.281 3.091h31.5c1.812 0 3.281-1.384 3.281-3.09v-2.474c0-1.707-1.469-3.091-3.281-3.091h-31.5z" fill="url(#d)" fill-opacity=".5"/><path fill-rule="evenodd" clip-rule="evenodd" d="M409 12.366C409 5.536 414.876 0 422.125 0h57.75C487.124 0 493 5.536 493 12.366v90.268c0 6.83-5.876 12.366-13.125 12.366h-57.75c-7.249 0-13.125-5.536-13.125-12.366V12.366zm22.969 12.365c0-1.707 1.469-3.091 3.281-3.091h24.938c1.812 0 3.281 1.384 3.281 3.091v2.473c0 1.708-1.469 3.092-3.281 3.092H435.25c-1.812 0-3.281-1.384-3.281-3.092v-2.473zm3.281 11.747c-1.812 0-3.281 1.385-3.281 3.092v2.473c0 1.707 1.469 3.091 3.281 3.091h11.812c1.813 0 3.282-1.384 3.282-3.091V39.57c0-1.707-1.469-3.092-3.282-3.092H435.25zm16.406 48.226c0-1.707 1.469-3.091 3.282-3.091h11.812c1.812 0 3.281 1.384 3.281 3.091v2.473c0 1.708-1.469 3.092-3.281 3.092h-11.812c-1.813 0-3.282-1.384-3.282-3.092v-2.473zM435.25 69.866c-1.812 0-3.281 1.384-3.281 3.091v2.473c0 1.707 1.469 3.091 3.281 3.091h31.5c1.812 0 3.281-1.384 3.281-3.09v-2.474c0-1.707-1.469-3.091-3.281-3.091h-31.5z" fill="url(#e)" fill-opacity=".5"/><defs><radialGradient id="a" cx="0" cy="0" r="1" gradientUnits="userSpaceOnUse" gradientTransform="rotate(46.017 .01 -32.652) scale(178.962 698.436)"><stop stop-color="#CA72B7"/><stop offset=".43" stop-color="#914680"/><stop offset="1" stop-color="#3F2660"/></radialGradient><radialGradient id="b" cx="0" cy="0" r="1" gradientUnits="userSpaceOnUse" gradientTransform="rotate(46.017 52.01 89.8) scale(178.962 698.436)"><stop stop-color="#CA72B7"/><stop offset=".43" stop-color="#914680"/><stop offset="1" stop-color="#3F2660"/></radialGradient><radialGradient id="c" cx="0" cy="0" r="1" gradientUnits="userSpaceOnUse" gradientTransform="matrix(125.7582 128.7725 -502.73595 490.9679 184.324 -9.985)"><stop stop-color="#CA72B7"/><stop offset=".43" stop-color="#914680"/><stop offset="1" stop-color="#3F2660"/></radialGradient><radialGradient id="d" cx="0" cy="0" r="1" gradientUnits="userSpaceOnUse" gradientTransform="rotate(46.017 156.51 335.883) scale(178.962 698.436)"><stop stop-color="#CA72B7"/><stop offset=".43" stop-color="#914680"/><stop offset="1" stop-color="#3F2660"/></radialGradient><radialGradient id="e" cx="0" cy="0" r="1" gradientUnits="userSpaceOnUse" gradientTransform="rotate(46.017 208.51 458.335) scale(178.962 698.436)"><stop stop-color="#CA72B7"/><stop offset=".43" stop-color="#914680"/><stop offset="1" stop-color="#3F2660"/></radialGradient></defs></svg>
